X: 940
T: All Around Aunt Ruby's Garden
R: polka
M: 2/4
K: Fmajor
|:FA cF|AG AG|FA cF|AG G2|
FA cF|AG Ac|d>e dc|AG F2:|
|:Ff ef|A>B AG|Ff ef|g2 g2|
Ff ef|A>B Ac|d>e dc|AG F2:|

